bluetooth.svg

<svg fill="currentColor" viewBox="0 0 24 24"><path d="M14.88 16.29 13 18.17v-3.76m0-8.58 1.88 1.88L13 9.58m4.71-1.87L12 2h-1v7.58L6.41 5 5 6.41 10.59 12 5 17.58 6.41 19 11 14.41V22h1l5.71-5.71-4.3-4.29z"/></svg>

<svg  viewBox="0 0 24 24" fill="currentColor"><path  d="M14.88,16.29L13,18.17V14.41M13,5.83L14.88,7.71L13,9.58M17.71,7.71L12,2H11V9.58L6.41,5L5,6.41L10.59,12L5,17.58L6.41,19L11,14.41V22H12L17.71,16.29L13.41,12L17.71,7.71Z"/></svg>
